X:3080
T:Marken er mejet
C:anon.
O:Denmark
F:http://abc.musicaviva.com/tunes/denmark/marken-er-mejet.abc
M:2/4
L:1/8
Q:1/4=125
K:A
"A"a2ec|"A"A2ce|"A"A2ce|"A"a2a2|"D"zf ff|"A"ze ee|"E7"Bd cB|"A"A4:|
|:"A"A2A2|"E"GBz2|"E"B2B2|"A"Acz2|"D"zf ff|"A"ze ee|"E7"Bd cB|"A"A4:|
W:
W:
W:  From Musica Viva - http://www.musicaviva.com
W:  the Internet center for free sheet music downloads.
